icons/mail-cross.svg

<svg xmlns="http://www.w3.org/2000/svg" viewBox="0 0 24 24" fill="currentColor">
  <path d="M6 5.19971c-1.28579 0-2.25.96421-2.25 2.25v7.99999c0 1.2858.96421 2.25 2.25 2.25h6c.4142 0 .75.3358.75.75s-.3358.75-.75.75H6c-2.11421 0-3.75-1.6358-3.75-3.75V7.44971c0-2.11422 1.63579-3.75 3.75-3.75h12c2.1142 0 3.75 1.63578 3.75 3.75v4.99999c0 .4142-.3358.75-.75.75s-.75-.3358-.75-.75V7.44971c0-1.28579-.9642-2.25-2.25-2.25H6ZM19.6301 15.7803c.2929-.2929.2929-.7677 0-1.0606-.2929-.2929-.7677-.2929-1.0606 0l-1.6197 1.6196-1.6197-1.6196c-.2929-.2929-.7677-.2929-1.0606 0-.2929.2929-.2929.7677 0 1.0606L15.8891 17.4l-1.6196 1.6197c-.2929.2928-.2929.7677 0 1.0606.2929.2929.7677.2929 1.0606 0l1.6197-1.6196 1.6197 1.6196c.2929.2929.7677.2929 1.0606 0 .2929-.2929.2929-.7678 0-1.0606L18.0105 17.4l1.6196-1.6197ZM6.341 7.78167c-.3689-.18838-.82066-.04203-1.00904.32687-.18837.3689-.04203.82066.32687 1.00903l4.69997 2.40003.0057.0029c1.0224.5112 2.1587.4951 3.24.0145.0123-.0055.0245-.0113.0365-.0174l4.7-2.40003c.3689-.18837.5152-.64013.3269-1.00903-.1884-.3689-.6402-.51525-1.0091-.32687l-4.681 2.39033c-.7109.311-1.3675.2933-1.9398.0081L6.341 7.78167Z"/>
</svg>

<svg width="24" height="24" viewBox="0 0 24 24" fill="none" xmlns="http://www.w3.org/2000/svg">
<path fill-rule="evenodd" clip-rule="evenodd" d="M6 5.19971C4.71421 5.19971 3.75 6.16392 3.75 7.44971V15.4497C3.75 16.7355 4.71421 17.6997 6 17.6997H12C12.4142 17.6997 12.75 18.0355 12.75 18.4497C12.75 18.8639 12.4142 19.1997 12 19.1997H6C3.88579 19.1997 2.25 17.5639 2.25 15.4497V7.44971C2.25 5.33549 3.88579 3.69971 6 3.69971H18C20.1142 3.69971 21.75 5.33549 21.75 7.44971V12.4497C21.75 12.8639 21.4142 13.1997 21 13.1997C20.5858 13.1997 20.25 12.8639 20.25 12.4497V7.44971C20.25 6.16392 19.2858 5.19971 18 5.19971H6ZM19.6301 15.7803C19.923 15.4874 19.923 15.0126 19.6301 14.7197C19.3372 14.4268 18.8624 14.4268 18.5695 14.7197L16.9498 16.3393L15.3301 14.7197C15.0372 14.4268 14.5624 14.4268 14.2695 14.7197C13.9766 15.0126 13.9766 15.4874 14.2695 15.7803L15.8891 17.4L14.2695 19.0197C13.9766 19.3125 13.9766 19.7874 14.2695 20.0803C14.5624 20.3732 15.0372 20.3732 15.3301 20.0803L16.9498 18.4607L18.5695 20.0803C18.8624 20.3732 19.3372 20.3732 19.6301 20.0803C19.923 19.7874 19.923 19.3125 19.6301 19.0197L18.0105 17.4L19.6301 15.7803ZM6.341 7.78167C5.9721 7.59329 5.52034 7.73964 5.33196 8.10854C5.14359 8.47744 5.28993 8.9292 5.65883 9.11757L10.3588 11.5176L10.3588 11.5176L10.3645 11.5205C11.3869 12.0317 12.5232 12.0156 13.6045 11.535C13.6168 11.5295 13.629 11.5237 13.641 11.5176L18.341 9.11757C18.7099 8.9292 18.8562 8.47744 18.6679 8.10854C18.4795 7.73964 18.0277 7.59329 17.6588 7.78167L12.9778 10.172C12.2669 10.483 11.6103 10.4653 11.038 10.1801L6.341 7.78167Z" fill="black"/>
</svg>
